symbols/web/extension_off/materialsymbolsoutlined/extension_off_wght300grad200fill1_48px.svg

<svg xmlns="http://www.w3.org/2000/svg" height="48" width="48"><path d="m40.75 44.4-2.7-2.7q-.25.1-.525.175-.275.075-.525.075h-8.7q-.35-2.3-1.875-3.725Q24.9 36.8 22.9 36.8t-3.525 1.425Q17.85 39.65 17.55 41.95h-8.6q-1.15 0-2.025-.875T6.05 39.05v-8.3q2.3-.45 3.725-2.05 1.425-1.6 1.425-3.6 0-2.05-1.425-3.625Q8.35 19.9 6.05 19.4V11q0-.25.075-.525T6.3 9.95l-2.7-2.7 2.05-2.1 37.2 37.2Zm-.95-9.65L13.25 8.2h4.1q.65-2 2.175-3.3Q21.05 3.6 23 3.6q1.95 0 3.45 1.3 1.5 1.3 2.2 3.3h8.25q1.15 0 2.025.875T39.8 11.1v8.25q2 .7 3.225 2.275t1.225 3.525q0 1.95-1.225 3.425Q41.8 30.05 39.8 30.7Z"/></svg>

<svg xmlns="http://www.w3.org/2000/svg" height="48" width="48"><path d="M40.75 44.4 38.05 41.7Q37.8 41.8 37.525 41.875Q37.25 41.95 37 41.95H28.3Q27.95 39.65 26.425 38.225Q24.9 36.8 22.9 36.8Q20.9 36.8 19.375 38.225Q17.85 39.65 17.55 41.95H8.95Q7.8 41.95 6.925 41.075Q6.05 40.2 6.05 39.05V30.75Q8.35 30.3 9.775 28.7Q11.2 27.1 11.2 25.1Q11.2 23.05 9.775 21.475Q8.35 19.9 6.05 19.4V11Q6.05 10.75 6.125 10.475Q6.2 10.2 6.3 9.95L3.6 7.25L5.65 5.15L42.85 42.35ZM39.8 34.75 13.25 8.2H17.35Q18 6.2 19.525 4.9Q21.05 3.6 23 3.6Q24.95 3.6 26.45 4.9Q27.95 6.2 28.65 8.2H36.9Q38.05 8.2 38.925 9.075Q39.8 9.95 39.8 11.1V19.35Q41.8 20.05 43.025 21.625Q44.25 23.2 44.25 25.15Q44.25 27.1 43.025 28.575Q41.8 30.05 39.8 30.7Z"/></svg>
